X:1
T:Title
%%score [ ( 1 2 ) ( 3 4 ) ]
L:1/8
Q:1/4=240
M:4/4
K:Bb
V:1 treble nm="Midi_74"
V:2 treble 
V:3 bass nm="Midi_74"
V:4 bass 
V:1
"^Psalm 44 (contd.)" F8 | G4 A2 B2 | A8 | B8 | e4 d4 | c4 c4 |"^S. S. Wesley" B8 |] %7
V:2
 F8 | F4 E4 | E8 | D8 | G4 F2 G2 | E2 D2 E4 | D8 |] %7
V:3
 C8 | B,4 E4 | C8 | B,8 | B,4 B,4 | B,4 A,4 | B,8 |] %7
V:4
 A,8 | G,4 C,4 | F,8 | G,8 | C,4 D,2 E,2 | F,4 F,4 | B,,8 |] %7

